public/assets/images/apple.svg

<svg fill="none" height="18" viewBox="0 0 14 18" width="14" xmlns="http://www.w3.org/2000/svg"><path d="m13.5545 6.1362c-.0997.081-1.8609 1.1196-1.8609 3.429 0 2.6712 2.241 3.6162 2.3081 3.6396-.0103.0576-.356 1.2942-1.1816 2.5542-.7361 1.1088-1.5049 2.2158-2.6744 2.2158-1.16953 0-1.47052-.711-2.82064-.711-1.31572 0-1.78354.7344-2.85332.7344-1.06977 0-1.81621-1.026-2.67444-2.286-.994106-1.4796-1.7973-3.7782-1.7973-5.9598 0-3.4992 2.17396-5.355 4.31351-5.355 1.13686 0 2.08452.7812 2.79828.7812.67936 0 1.73882-.828 3.03221-.828.4902 0 2.2513.0468 3.4105 1.7856zm-4.02453-3.267c.53493-.6642.91323-1.5858.91323-2.5074 0-.1278-.0103-.2574-.0326-.3618-.87031.0342-1.90569.6066-2.53001 1.3644-.49017.5832-.94767 1.5048-.94767 2.439 0 .1404.02236.2808.03268.3258.05504.0108.14447.0234.23391.0234.78083 0 1.7629-.5472 2.33046-1.2834z" fill="#fff"/></svg>

<svg
          width="14"
          height="18"
          viewBox="0 0 14 18"
          fill="none"
          xmlns="http://www.w3.org/2000/svg"
        >
          <path
            d="M13.5545 6.1362C13.4548 6.2172 11.6936 7.2558 11.6936 9.5652C11.6936 12.2364 13.9346 13.1814 14.0017 13.2048C13.9914 13.2624 13.6457 14.499 12.8201 15.759C12.084 16.8678 11.3152 17.9748 10.1457 17.9748C8.97617 17.9748 8.67518 17.2638 7.32506 17.2638C6.00934 17.2638 5.54152 17.9982 4.47174 17.9982C3.40197 17.9982 2.65553 16.9722 1.7973 15.7122C0.803194 14.2326 0 11.934 0 9.7524C0 6.2532 2.17396 4.3974 4.31351 4.3974C5.45037 4.3974 6.39803 5.1786 7.11179 5.1786C7.79115 5.1786 8.85061 4.3506 10.144 4.3506C10.6342 4.3506 12.3953 4.3974 13.5545 6.1362ZM9.52997 2.8692C10.0649 2.205 10.4432 1.2834 10.4432 0.3618C10.4432 0.234 10.4329 0.1044 10.4106 0C9.54029 0.0342 8.50491 0.6066 7.88059 1.3644C7.39042 1.9476 6.93292 2.8692 6.93292 3.8034C6.93292 3.9438 6.95528 4.0842 6.9656 4.1292C7.02064 4.14 7.11007 4.1526 7.19951 4.1526C7.98034 4.1526 8.96241 3.6054 9.52997 2.8692Z"
            fill="white"
            fillOpacity="0.8"
          />
        </svg>
